aemilian/images/svg/video-b.svg

<svg version="1.1" id="Layer_1" xmlns="http://www.w3.org/2000/svg" xmlns:xlink="http://www.w3.org/1999/xlink" x="0px" y="0px"
	 width="100%" viewBox="0 0 900 600" enable-background="new 0 0 900 600" xml:space="preserve">
<path fill="#817979" opacity="1.000000" stroke="none" 
	d="
M620.000000,601.000000 
	C413.333344,601.000000 207.166672,601.000000 1.000000,601.000000 
	C1.000000,401.000000 1.000000,201.000000 1.000000,1.000000 
	C301.000000,1.000000 601.000000,1.000000 901.000000,1.000000 
	C901.000000,201.000000 901.000000,401.000000 901.000000,601.000000 
	C807.500000,601.000000 714.000000,601.000000 620.000000,601.000000 
M466.500031,89.887520 
	C392.840118,89.887978 319.180237,89.877563 245.520325,89.896484 
	C226.952148,89.901253 215.000198,101.696220 214.906204,120.033524 
	C214.865204,128.032623 214.895660,136.032104 214.895630,144.031403 
	C214.895264,238.189926 214.881516,332.348450 214.943741,426.506958 
	C214.946320,430.408966 214.794067,432.739258 209.635483,433.157776 
	C200.063782,433.934326 193.991623,441.551971 193.970642,451.280060 
	C193.942612,464.278839 193.917892,477.278015 193.979477,490.276611 
	C194.032074,501.372162 201.433350,508.825287 212.444199,508.826447 
	C371.763733,508.843048 531.083313,508.841858 690.402832,508.829773 
	C700.430664,508.829010 707.754700,502.158112 707.945129,492.249329 
	C708.217346,478.089508 708.172241,463.917419 707.932129,449.756195 
	C707.795166,441.676147 702.715088,434.390839 695.533936,433.647919 
	C688.801819,432.951477 688.826538,429.524414 688.831238,424.481689 
	C688.925415,323.657166 688.914490,222.832535 688.890259,122.007919 
	C688.885071,100.705208 678.079651,89.889427 656.983643,89.888542 
	C593.822449,89.885895 530.661255,89.887550 466.500031,89.887520 
z"/>
<path fill="#010101" opacity="1.000000" stroke="none" 
	d="
M467.000061,89.887520 
	C530.661255,89.887550 593.822449,89.885895 656.983643,89.888542 
	C678.079651,89.889427 688.885071,100.705208 688.890259,122.007919 
	C688.914490,222.832535 688.925415,323.657166 688.831238,424.481689 
	C688.826538,429.524414 688.801819,432.951477 695.533936,433.647919 
	C702.715088,434.390839 707.795166,441.676147 707.932129,449.756195 
	C708.172241,463.917419 708.217346,478.089508 707.945129,492.249329 
	C707.754700,502.158112 700.430664,508.829010 690.402832,508.829773 
	C531.083313,508.841858 371.763733,508.843048 212.444199,508.826447 
	C201.433350,508.825287 194.032074,501.372162 193.979477,490.276611 
	C193.917892,477.278015 193.942612,464.278839 193.970642,451.280060 
	C193.991623,441.551971 200.063782,433.934326 209.635483,433.157776 
	C214.794067,432.739258 214.946320,430.408966 214.943741,426.506958 
	C214.881516,332.348450 214.895264,238.189926 214.895630,144.031403 
	C214.895660,136.032104 214.865204,128.032623 214.906204,120.033524 
	C215.000198,101.696220 226.952148,89.901253 245.520325,89.896484 
	C319.180237,89.877563 392.840118,89.887978 467.000061,89.887520 
M266.948730,332.500000 
	C266.948822,361.989410 266.946472,391.478790 266.950836,420.968201 
	C266.951813,427.641144 266.962555,427.651184 273.851593,427.651306 
	C392.642639,427.653412 511.433685,427.653564 630.224731,427.650757 
	C636.767578,427.650604 636.779724,427.637024 636.779968,421.143677 
	C636.782715,330.009460 636.782776,238.875229 636.779968,147.741013 
	C636.779785,141.326385 636.766846,141.316376 630.149841,141.316269 
	C511.358795,141.314209 392.567749,141.314240 273.776703,141.316086 
	C266.960815,141.316193 266.950775,141.325119 266.950470,148.065308 
	C266.947754,209.210205 266.948792,270.355103 266.948730,332.500000 
M576.713867,484.316772 
	C582.754639,478.720825 584.519592,472.344238 581.904419,465.563690 
	C579.520935,459.383820 573.512085,455.230133 566.828125,455.141876 
	C560.321960,455.055969 554.135071,459.108795 551.459473,465.209137 
	C548.739258,471.411377 550.365173,478.744476 555.496887,483.419342 
	C561.474487,488.864777 567.853027,489.277374 576.713867,484.316772 
M631.496216,455.810944 
	C620.639771,453.626770 611.231934,460.669373 611.077332,471.096161 
	C610.952332,479.530792 617.366272,486.836273 625.786011,487.849274 
	C633.507751,488.778320 641.340332,483.270538 643.365845,475.487396 
	C645.561157,467.051880 641.219360,459.424011 631.496216,455.810944 
z"/>
<path fill="#807878" opacity="1.000000" stroke="none" 
	d="
M266.948730,332.000000 
	C266.948792,270.355103 266.947754,209.210205 266.950470,148.065308 
	C266.950775,141.325119 266.960815,141.316193 273.776703,141.316086 
	C392.567749,141.314240 511.358795,141.314209 630.149841,141.316269 
	C636.766846,141.316376 636.779785,141.326385 636.779968,147.741013 
	C636.782776,238.875229 636.782715,330.009460 636.779968,421.143677 
	C636.779724,427.637024 636.767578,427.650604 630.224731,427.650757 
	C511.433685,427.653564 392.642639,427.653412 273.851593,427.651306 
	C266.962555,427.651184 266.951813,427.641144 266.950836,420.968201 
	C266.946472,391.478790 266.948822,361.989410 266.948730,332.000000 
M485.500000,391.045776 
	C506.999207,391.045654 528.498474,391.069885 549.997559,391.017303 
	C552.984558,391.010010 556.049316,390.982727 558.942688,390.347717 
	C568.635986,388.220306 575.520874,382.521393 578.417603,372.935608 
	C581.396240,363.078979 579.323059,354.168640 571.914612,346.725037 
	C565.799255,340.580658 558.174500,339.261963 549.883850,339.272339 
	C483.886475,339.354980 417.889008,339.315216 351.891541,339.331879 
	C349.562531,339.332458 347.228302,339.463806 344.905426,339.647095 
	C330.671814,340.770050 319.813293,354.786743 322.203461,368.914825 
	C324.514557,382.575470 334.964508,391.002808 350.005219,391.022369 
	C394.836731,391.080750 439.668396,391.044830 485.500000,391.045776 
M490.048981,220.458801 
	C470.512115,207.752289 450.938354,195.101913 431.465240,182.298462 
	C426.797516,179.229446 422.046783,177.840073 416.932465,180.469772 
	C411.776093,183.121109 410.099609,187.975311 410.094513,193.446945 
	C410.061554,228.912354 409.990295,264.378113 410.120453,299.843109 
	C410.168396,312.903351 420.323486,318.548462 431.216827,311.533203 
	C458.228271,294.138000 485.153412,276.606598 511.984070,258.933868 
	C521.899536,252.402771 521.763306,241.457413 511.960175,234.813034 
	C504.933472,230.050415 497.762360,225.500916 490.048981,220.458801 
z"/>
<path fill="#7E7676" opacity="1.000000" stroke="none" 
	d="
M576.417603,484.535156 
	C567.853027,489.277374 561.474487,488.864777 555.496887,483.419342 
	C550.365173,478.744476 548.739258,471.411377 551.459473,465.209137 
	C554.135071,459.108795 560.321960,455.055969 566.828125,455.141876 
	C573.512085,455.230133 579.520935,459.383820 581.904419,465.563690 
	C584.519592,472.344238 582.754639,478.720825 576.417603,484.535156 
z"/>
<path fill="#7E7676" opacity="1.000000" stroke="none" 
	d="
M631.883118,455.902405 
	C641.219360,459.424011 645.561157,467.051880 643.365845,475.487396 
	C641.340332,483.270538 633.507751,488.778320 625.786011,487.849274 
	C617.366272,486.836273 610.952332,479.530792 611.077332,471.096161 
	C611.231934,460.669373 620.639771,453.626770 631.883118,455.902405 
z"/>
<path fill="#010101" opacity="1.000000" stroke="none" 
	d="
M485.000000,391.045776 
	C439.668396,391.044830 394.836731,391.080750 350.005219,391.022369 
	C334.964508,391.002808 324.514557,382.575470 322.203461,368.914825 
	C319.813293,354.786743 330.671814,340.770050 344.905426,339.647095 
	C347.228302,339.463806 349.562531,339.332458 351.891541,339.331879 
	C417.889008,339.315216 483.886475,339.354980 549.883850,339.272339 
	C558.174500,339.261963 565.799255,340.580658 571.914612,346.725037 
	C579.323059,354.168640 581.396240,363.078979 578.417603,372.935608 
	C575.520874,382.521393 568.635986,388.220306 558.942688,390.347717 
	C556.049316,390.982727 552.984558,391.010010 549.997559,391.017303 
	C528.498474,391.069885 506.999207,391.045654 485.000000,391.045776 
z"/>
<path fill="#010101" opacity="1.000000" stroke="none" 
	d="
M490.352295,220.657578 
	C497.762360,225.500916 504.933472,230.050415 511.960175,234.813034 
	C521.763306,241.457413 521.899536,252.402771 511.984070,258.933868 
	C485.153412,276.606598 458.228271,294.138000 431.216827,311.533203 
	C420.323486,318.548462 410.168396,312.903351 410.120453,299.843109 
	C409.990295,264.378113 410.061554,228.912354 410.094513,193.446945 
	C410.099609,187.975311 411.776093,183.121109 416.932465,180.469772 
	C422.046783,177.840073 426.797516,179.229446 431.465240,182.298462 
	C450.938354,195.101913 470.512115,207.752289 490.352295,220.657578 
z"/>
</svg>

<svg xmlns="http://www.w3.org/2000/svg" viewBox="0 0 900 600" xml:space="preserve"><path fill="#817979" d="M620 601H1V1h900v600H620M466.5 89.888c-73.66 0-147.32-.01-220.98.008-18.568.005-30.52 11.8-30.614 30.138-.04 7.999-.01 15.998-.01 23.997 0 94.159-.014 188.317.048 282.476.002 3.902-.15 6.232-5.309 6.65-9.571.777-15.643 8.395-15.664 18.123-.028 12.999-.053 25.998.008 38.997.053 11.095 7.454 18.548 18.465 18.55 159.32.016 318.64.015 477.959.003 10.028-.001 17.352-6.672 17.542-16.58.272-14.16.227-28.333-.013-42.494-.137-8.08-5.217-15.365-12.398-16.108-6.732-.697-6.707-4.124-6.703-9.166.094-100.825.083-201.65.06-302.474-.006-21.303-10.811-32.119-31.907-32.12-63.162-.002-126.323 0-190.484 0z"/><path fill="#010101" d="M467 89.888c63.661 0 126.822-.002 189.984 0 21.096.001 31.901 10.817 31.906 32.12.024 100.825.035 201.65-.059 302.474-.004 5.042-.03 8.47 6.703 9.166 7.181.743 12.261 8.028 12.398 16.108.24 14.161.285 28.334.013 42.493-.19 9.91-7.514 16.58-17.542 16.58-159.32.013-318.64.014-477.959-.003-11.01 0-18.412-7.454-18.465-18.55-.061-12.998-.036-25.997-.008-38.996.02-9.728 6.093-17.346 15.664-18.122 5.16-.419 5.311-2.749 5.309-6.651-.062-94.159-.049-188.317-.048-282.476 0-7.999-.03-15.998.01-23.997.094-18.338 12.046-30.133 30.614-30.138 73.66-.018 147.32-.008 221.48-.008M266.95 332.5c0 29.49-.003 58.979.002 88.468 0 6.673.012 6.683 6.9 6.683 118.792.002 237.583.003 356.374 0 6.543 0 6.555-.014 6.555-6.507.003-91.135.003-182.269 0-273.403 0-6.415-.013-6.425-6.63-6.425-118.791-.002-237.582-.002-356.373 0-6.816 0-6.826.01-6.827 6.75-.002 61.144-.001 122.29-.001 184.434m309.765 151.817c6.04-5.596 7.806-11.973 5.19-18.753-2.383-6.18-8.392-10.334-15.076-10.422-6.506-.086-12.693 3.967-15.369 10.067-2.72 6.202-1.094 13.535 4.038 18.21 5.977 5.446 12.356 5.858 21.217.898m54.782-28.506c-10.856-2.184-20.264 4.858-20.419 15.285-.125 8.435 6.29 15.74 14.709 16.753 7.722.93 15.554-4.578 17.58-12.362 2.195-8.435-2.147-16.063-11.87-19.676z"/><path fill="#807878" d="M266.949 332c0-61.645-.001-122.79.001-183.935 0-6.74.01-6.749 6.827-6.749 118.79-.002 237.582-.002 356.373 0 6.617 0 6.63.01 6.63 6.425.003 91.134.003 182.268 0 273.403 0 6.493-.012 6.507-6.555 6.507-118.791.003-237.582.002-356.373 0-6.89 0-6.9-.01-6.901-6.683-.005-29.49-.002-58.979-.002-88.968M485.5 391.046c21.5 0 42.998.024 64.498-.029 2.987-.007 6.051-.034 8.945-.67 9.693-2.127 16.578-7.826 19.475-17.411 2.978-9.857.905-18.767-6.503-26.211-6.116-6.144-13.74-7.463-22.031-7.453-65.998.083-131.995.043-197.992.06-2.33 0-4.664.132-6.987.315-14.233 1.123-25.092 15.14-22.702 29.268 2.312 13.66 12.762 22.088 27.802 22.107 44.832.059 89.663.023 135.495.024m4.549-170.587c-19.537-12.707-39.11-25.357-58.584-38.16-4.667-3.07-9.418-4.459-14.533-1.83-5.156 2.652-6.832 7.506-6.837 12.978-.033 35.465-.105 70.931.025 106.396.048 13.06 10.203 18.705 21.097 11.69a9349.454 9349.454 0 0 0 80.767-52.6c9.916-6.53 9.78-17.476-.024-24.12-7.027-4.763-14.198-9.312-21.911-14.354z"/><path fill="#7E7676" d="M576.418 484.535c-8.565 4.742-14.944 4.33-20.921-1.116-5.132-4.675-6.758-12.008-4.038-18.21 2.676-6.1 8.863-10.153 15.37-10.067 6.683.088 12.692 4.242 15.075 10.422 2.616 6.78.85 13.157-5.486 18.971zM631.883 455.902c9.336 3.522 13.678 11.15 11.483 19.585-2.026 7.784-9.858 13.291-17.58 12.362-8.42-1.013-14.834-8.318-14.709-16.753.155-10.427 9.563-17.47 20.806-15.194z"/><path fill="#010101" d="M485 391.046c-45.332-.001-90.163.035-134.995-.024-15.04-.02-25.49-8.447-27.802-22.107-2.39-14.128 8.469-28.145 22.702-29.268 2.323-.183 4.658-.315 6.987-.315 65.997-.017 131.994.023 197.992-.06 8.29-.01 15.915 1.309 22.03 7.453 7.41 7.444 9.482 16.354 6.504 26.21-2.897 9.586-9.782 15.285-19.475 17.413-2.894.635-5.958.662-8.945.67-21.5.052-42.999.028-64.998.028zM490.352 220.658c7.41 4.843 14.581 9.392 21.608 14.155 9.803 6.644 9.94 17.59.024 24.12a9349.454 9349.454 0 0 1-80.767 52.6c-10.894 7.015-21.049 1.37-21.097-11.69-.13-35.465-.058-70.93-.025-106.396.005-5.472 1.681-10.326 6.837-12.977 5.115-2.63 9.866-1.24 14.533 1.828 19.473 12.804 39.047 25.454 58.887 38.36z"/></svg>
